!!!OTL: 129a. Der Zimmergesell.
!!!ARE: Europa, Mitteleuropa, Deutschland
!!!SCT: E0129
!!!TXL: @@DE
!!!YEM: Copyright 1995, estate of Helmut Schaffrath.
**kern	**text
*ICvox	*
*M6/8	*
*k[b-]	*
*F:	*
!LO:TX:a:t=Heiter.	!
!LO:TX:a:t=Mel. ſeit 1820 in ganʒ Deutſchland gekannt.	!
{8c	War
=1	=1
4f	einſt
8f	ein
8aL	jung
8gJ	.
8f	jung
=2	=2
8.g	Ʒim-
16g	-mer-
8g	-ge-
8b-L	-fell,
8aJ}	.
{8g	der
=3	=3
4d	baut
8d	dem
8fL	Markgrafn
8eJ	.
8d	ein
=4	=4
[4.a	Haus
8a]	.
8r}	.
{8cc	von
=5	=5
4cc	lau-
8b-	-ter
8dd	Sil-
8dd	-ber
8b-	und
=6	=6
8b-	E-
8b-	-del-
8a	-ge-
4cc}	-ſtein,
{8a	ſechs-
=7	=7
8a	-hun-
8a	-dert
8g	Schau-
4a	-läden
8b-	hin-
=8	=8
[4.cc	-aus,
8cc]	.
8r}	.
{8cc	von
=9	=9
4cc	lau-
8cc	-ter
8dd	Sil-
8dd	-ber
8b-	und
=10	=10
4b-	Edel-
8a	-ge-
4cc}	-ſtein,
{8a	ſechs-
=11	=11
4a	-hundert
8g	Schau-
4b-/	-lä-
8a	-den
=12	=12
[>4.f	hin-
8f]	-aus.
8r}	.
==	==
!!!AGN: erzaehlendes Volks - Lied, Schalk -, Schelmen - Lied, Liebe; Handwerk, Ballade ?
!!!ONB: ESAC (Essen Associative Code) Database: ERK1
!!!AMT: compound duple
!!!AIN: vox
!!!EED: Helmut Schaffrath
!!!EEV: 1.0
!!!RDF**kern: > = above
!!!GTL: Schalks- und Schlemenlieder (Liebesabenteuer und betrogene Liebe)
!!!URL-scan: https://rosdok.uni-rostock.de/mcrviewer/recordIdentifier/rosdok_ppn745146120/iview2/phys_0510.iview2?x=-725.3371323957142&y=1454.282302493928&scale=0.40883570902695276&rotation=0&layout=singlePageLayout
!!!ENC: Anna Maria Matuszewska
!!!EEV: 2024/03/12
*-	*-
